X: 21833
Q: "Moderately slow"
M: C
L: 1/8
K: Bm
f3e d2f2 | a4 g2f2 | e3d c2d2 | e4 z2de |\
f2d2 e2c2 | d3B Hf2(BA) | F2B2 (dc)(B^A) | B4 z2 |]


